client/filepreviewer/pdfjs/web/images/cursor-editorTextHighlight.svg

<svg width="29" height="32" viewBox="0 0 29 32" fill="none" xmlns="http://www.w3.org/2000/svg">
<path d="M28 16.75C28.2761 16.75 28.5 16.5261 28.5 16.25V15C28.5 14.7239 28.2761 14.5 28 14.5H26.358C25.9117 14.5 25.4773 14.6257 25.0999 14.8604L25.0989 14.8611L24 15.5484L22.9 14.861L22.8991 14.8604C22.5218 14.6257 22.0875 14.5 21.642 14.5H20C19.7239 14.5 19.5 14.7239 19.5 15V16.25C19.5 16.5261 19.7239 16.75 20 16.75H21.642C21.6648 16.75 21.6885 16.7564 21.7101 16.7697C21.7102 16.7698 21.7104 16.7699 21.7105 16.77L22.817 17.461C22.817 17.461 22.8171 17.4611 22.8171 17.4611C22.8171 17.4611 22.8171 17.4611 22.8171 17.4611C22.8552 17.4849 22.876 17.5229 22.876 17.567V22.625V27.683C22.876 27.7271 22.8552 27.765 22.8172 27.7889C22.8171 27.7889 22.8171 27.789 22.817 27.789L21.7095 28.48C21.7094 28.4801 21.7093 28.4802 21.7092 28.4803C21.6872 28.4938 21.6644 28.5 21.641 28.5H20C19.7239 28.5 19.5 28.7239 19.5 29V30.25C19.5 30.5261 19.7239 30.75 20 30.75H21.642C22.0883 30.75 22.5227 30.6243 22.9001 30.3896L22.9009 30.3891L24 29.7026L25.1 30.39L25.1009 30.3906C25.4783 30.6253 25.9127 30.751 26.359 30.751H28C28.2761 30.751 28.5 30.5271 28.5 30.251V29.001C28.5 28.7249 28.2761 28.501 28 28.501H26.358C26.3352 28.501 26.3115 28.4946 26.2899 28.4813C26.2897 28.4812 26.2896 28.4811 26.2895 28.481L25.183 27.79C25.183 27.79 25.183 27.79 25.1829 27.79C25.1829 27.7899 25.1829 27.7899 25.1829 27.7899C25.1462 27.7669 25.125 27.7297 25.125 27.684V22.625V17.567C25.125 17.5227 25.146 17.4844 25.1836 17.4606C25.1838 17.4605 25.1839 17.4604 25.184 17.4603L26.2895 16.77C26.2896 16.7699 26.2898 16.7698 26.2899 16.7697C26.3119 16.7562 26.3346 16.75 26.358 16.75H28Z" fill="black" stroke="#FBFBFE" stroke-linejoin="round"/>
<path d="M24.625 17.567C24.625 17.35 24.735 17.152 24.918 17.037L26.026 16.345C26.126 16.283 26.24 16.25 26.358 16.25H28V15H26.358C26.006 15 25.663 15.099 25.364 15.285L24.256 15.978C24.161 16.037 24.081 16.113 24 16.187C23.918 16.113 23.839 16.037 23.744 15.978L22.635 15.285C22.336 15.099 21.993 15 21.642 15H20V16.25H21.642C21.759 16.25 21.874 16.283 21.974 16.345L23.082 17.037C23.266 17.152 23.376 17.35 23.376 17.567V22.625V27.683C23.376 27.9 23.266 28.098 23.082 28.213L21.973 28.905C21.873 28.967 21.759 29 21.641 29H20V30.25H21.642C21.994 30.25 22.337 30.151 22.636 29.965L23.744 29.273C23.84 29.213 23.919 29.137 24 29.064C24.081 29.137 24.161 29.213 24.256 29.273L25.365 29.966C25.664 30.152 26.007 30.251 26.359 30.251H28V29.001H26.358C26.241 29.001 26.126 28.968 26.026 28.906L24.918 28.214C24.734 28.099 24.625 27.901 24.625 27.684V22.625V17.567Z" fill="black"/>
<path fill-rule="evenodd" clip-rule="evenodd" d="M12.2 2.59C12.28 2.51 12.43 2.5 12.43 2.5C12.48 2.5 12.58 2.52 12.66 2.6L14.45 4.39C14.58 4.52 14.58 4.72 14.45 4.85L11.7713 7.52872L9.51628 5.27372L12.2 2.59ZM13.2658 4.62L11.7713 6.1145L10.9305 5.27372L12.425 3.77921L13.2658 4.62Z" fill="#FBFBFE"/>
<path fill-rule="evenodd" clip-rule="evenodd" d="M5.98 8.82L8.23 11.07L10.7106 8.58938L8.45562 6.33438L5.98 8.81V8.82ZM8.23 9.65579L9.29641 8.58938L8.45562 7.74859L7.38921 8.815L8.23 9.65579Z" fill="#FBFBFE"/>
<path fill-rule="evenodd" clip-rule="evenodd" d="M10.1526 12.6816L16.2125 6.6217C16.7576 6.08919 17.05 5.3707 17.05 4.62C17.05 3.86931 16.7576 3.15084 16.2126 2.61834L14.4317 0.837474C13.8992 0.29242 13.1807 0 12.43 0C11.6643 0 10.9529 0.312929 10.4329 0.832893L3.68289 7.58289C3.04127 8.22452 3.00459 9.25075 3.57288 9.93634L1.29187 12.2239C1.09186 12.4245 0.990263 12.6957 1.0007 12.9685L1 14C0.447715 14 0 14.4477 0 15V17C0 17.5523 0.447715 18 1 18H16C16.5523 18 17 17.5523 17 17V15C17 14.4477 16.5523 14 16 14H10.2325C9.83594 14 9.39953 13.4347 10.1526 12.6816ZM4.39 9.35L4.9807 9.9407L2.39762 12.5312H6.63877L7.10501 12.065L7.57125 12.5312H8.88875L15.51 5.91C15.86 5.57 16.05 5.11 16.05 4.62C16.05 4.13 15.86 3.67 15.51 3.33L13.72 1.54C13.38 1.19 12.92 1 12.43 1C11.94 1 11.48 1.2 11.14 1.54L4.39 8.29C4.1 8.58 4.1 9.06 4.39 9.35ZM16 17V15H1V17H16Z" fill="#FBFBFE"/>
<path d="M15.1616 5.55136L15.1616 5.55132L15.1564 5.55645L8.40645 12.3064C8.35915 12.3537 8.29589 12.38 8.23 12.38C8.16411 12.38 8.10085 12.3537 8.05355 12.3064L7.45857 11.7115L7.10501 11.3579L6.75146 11.7115L6.03289 12.43H3.20465L5.33477 10.2937L5.6873 9.94019L5.33426 9.58715L4.74355 8.99645C4.64882 8.90171 4.64882 8.73829 4.74355 8.64355L11.4936 1.89355C11.7436 1.64354 12.0779 1.5 12.43 1.5C12.7883 1.5 13.1179 1.63776 13.3614 1.88839L13.3613 1.88843L13.3664 1.89355L15.1564 3.68355L15.1564 3.68359L15.1616 3.68864C15.4122 3.93211 15.55 4.26166 15.55 4.62C15.55 4.97834 15.4122 5.30789 15.1616 5.55136ZM5.48 8.82V9.02711L5.62645 9.17355L7.87645 11.4236L8.23 11.7771L8.58355 11.4236L11.0642 8.94293L11.4177 8.58938L11.0642 8.23582L8.80918 5.98082L8.45562 5.62727L8.10207 5.98082L5.62645 8.45645L5.48 8.60289V8.81V8.82ZM11.4177 7.88227L11.7713 8.23582L12.1248 7.88227L14.8036 5.20355C15.1288 4.87829 15.1288 4.36171 14.8036 4.03645L13.0136 2.24645C12.8186 2.05146 12.5792 2 12.43 2H12.4134L12.3967 2.00111L12.43 2.5C12.3967 2.00111 12.3966 2.00112 12.3965 2.00112L12.3963 2.00114L12.3957 2.00117L12.3947 2.00125L12.3924 2.00142L12.387 2.00184L12.3732 2.00311C12.3628 2.00416 12.3498 2.00567 12.3346 2.00784C12.3049 2.01208 12.2642 2.01925 12.2178 2.03146C12.1396 2.05202 11.9797 2.10317 11.8464 2.23645L9.16273 4.92016L8.80918 5.27372L9.16273 5.62727L11.4177 7.88227ZM1.5 16.5V15.5H15.5V16.5H1.5Z" stroke="#15141A"/>
</svg>

<svg xmlns="http://www.w3.org/2000/svg" width="29" height="32" fill="none"><path fill="#000" stroke="#FBFBFE" stroke-linejoin="round" d="M28 16.75a.5.5 0 0 0 .5-.5V15a.5.5 0 0 0-.5-.5h-1.642c-.446 0-.88.126-1.258.36l-.001.001-1.099.687-1.1-.687a2.378 2.378 0 0 0-1.258-.361H20a.5.5 0 0 0-.5.5v1.25a.5.5 0 0 0 .5.5h1.642a.13.13 0 0 1 .068.02l1.107.691a.121.121 0 0 1 .059.106v10.116c0 .044-.02.082-.059.106l-1.108.691a.128.128 0 0 1-.068.02H20a.5.5 0 0 0-.5.5v1.25a.5.5 0 0 0 .5.5h1.642c.446 0 .88-.126 1.258-.36l1.1-.687 1.1.687c.378.235.813.361 1.259.361H28a.5.5 0 0 0 .5-.5v-1.25a.5.5 0 0 0-.5-.5h-1.642a.13.13 0 0 1-.068-.02l-1.107-.691a.12.12 0 0 1-.058-.106V17.567c0-.044.021-.083.059-.106l1.105-.691a.128.128 0 0 1 .069-.02H28Z"/><path fill="#000" d="M24.625 17.567c0-.217.11-.415.293-.53l1.108-.692a.628.628 0 0 1 .332-.095H28V15h-1.642a1.88 1.88 0 0 0-.994.285l-1.108.693c-.095.059-.175.135-.256.209-.082-.074-.161-.15-.256-.209l-1.109-.693a1.878 1.878 0 0 0-.993-.285H20v1.25h1.642a.63.63 0 0 1 .332.095l1.108.692a.621.621 0 0 1 .294.53v10.116c0 .217-.11.415-.294.53l-1.109.692a.628.628 0 0 1-.332.095H20v1.25h1.642c.352 0 .695-.099.994-.285l1.108-.692c.096-.06.175-.136.256-.209.081.073.161.149.256.209l1.109.693c.299.186.642.285.994.285H28v-1.25h-1.642a.63.63 0 0 1-.332-.095l-1.108-.692a.62.62 0 0 1-.293-.53V17.567Z"/><path fill="#FBFBFE" fill-rule="evenodd" d="M12.2 2.59c.08-.08.23-.09.23-.09.05 0 .15.02.23.1l1.79 1.79c.13.13.13.33 0 .46l-2.679 2.679-2.255-2.255L12.2 2.59Zm1.066 2.03L11.77 6.114l-.84-.84 1.494-1.495.84.841ZM5.98 8.82l2.25 2.25 2.48-2.48-2.254-2.256L5.98 8.81v.01Zm2.25.836 1.066-1.067-.84-.84-1.067 1.066.841.84Z" clip-rule="evenodd"/><path fill="#FBFBFE" fill-rule="evenodd" d="m10.153 12.682 6.06-6.06a2.783 2.783 0 0 0 .837-2.002c0-.75-.292-1.47-.837-2.002L14.432.838A2.783 2.783 0 0 0 12.43 0c-.766 0-1.477.313-1.997.833l-6.75 6.75a1.755 1.755 0 0 0-.11 2.353l-2.281 2.288a1 1 0 0 0-.291.745L1 14a1 1 0 0 0-1 1v2a1 1 0 0 0 1 1h15a1 1 0 0 0 1-1v-2a1 1 0 0 0-1-1h-5.768c-.396 0-.832-.565-.08-1.318ZM4.39 9.35l.59.59-2.582 2.591h4.24l.467-.466.466.466H8.89L15.51 5.91c.35-.34.54-.8.54-1.29s-.19-.95-.54-1.29l-1.79-1.79c-.34-.35-.8-.54-1.29-.54s-.95.2-1.29.54L4.39 8.29c-.29.29-.29.77 0 1.06ZM16 17v-2H1v2h15Z" clip-rule="evenodd"/><path stroke="#15141A" d="m15.162 5.551-.006.005-6.75 6.75a.25.25 0 0 1-.352 0l-.595-.595-.354-.353-.354.353-.718.719H3.205l2.13-2.136.352-.354-.353-.353-.59-.59a.255.255 0 0 1 0-.353l6.75-6.75c.25-.25.584-.394.936-.394.358 0 .688.138.931.388l.005.006 1.79 1.79.006.005c.25.243.388.573.388.931 0 .358-.138.688-.388.931ZM5.48 8.82v.207l.146.147 2.25 2.25.354.353.354-.353 2.48-2.481.354-.354-.354-.353L8.81 5.98l-.353-.354-.354.354-2.476 2.475-.146.147v.217Zm5.938-.938.353.354.354-.354 2.679-2.678a.82.82 0 0 0 0-1.168l-1.79-1.79A.842.842 0 0 0 12.43 2h-.017l-.016.001.033.499-.034-.499H12.387l-.014.002a.947.947 0 0 0-.155.028.82.82 0 0 0-.372.205L9.163 4.92l-.354.354.354.353 2.255 2.255ZM1.5 16.5v-1h14v1h-14Z"/></svg>
